images/vercel.svg

<svg width="4438" height="1000" fill="none" xmlns="http://www.w3.org/2000/svg"><style>@media (prefers-color-scheme:dark){path{fill:#fff}}</style><path d="M2223.75 250c-172.5 0-296.88 112.5-296.88 281.25s139.85 281.25 312.51 281.25c104.21 0 196.09-41.25 252.96-110.781l-119.53-69.063c-31.56 34.532-79.53 54.688-133.43 54.688-74.85 0-138.44-39.063-162.04-101.563h437.82c3.43-17.5 5.47-35.625 5.47-54.687C2520.63 362.5 2396.41 250 2223.75 250zm-147.66 226.562C2095.62 414.219 2149.06 375 2223.75 375c74.84 0 128.28 39.219 147.66 101.562h-295.32zm-35.31-398.437l-432.97 750-433.12-750h162.34l270.63 468.75 270.62-468.75h162.5zM577.344 0l577.346 1000H0L577.344 0zM3148.75 531.25C3148.75 625 3210 687.5 3305 687.5c64.38 0 112.66-29.219 137.5-76.875l120 69.219C3512.81 762.656 3419.69 812.5 3305 812.5c-172.66 0-296.87-112.5-296.87-281.25S3132.5 250 3305 250c114.69 0 207.66 49.844 257.5 132.656l-120 69.219C3417.66 404.219 3369.38 375 3305 375c-94.84 0-156.25 62.5-156.25 156.25zM4437.5 78.125v718.75h-140.62V78.125h140.62zM3906.25 250c-172.5 0-296.87 112.5-296.87 281.25s140 281.25 312.5 281.25c104.21 0 196.09-41.25 252.96-110.781l-119.53-69.063c-31.56 34.532-79.53 54.688-133.43 54.688-74.85 0-138.44-39.063-162.04-101.563h437.82c3.43-17.5 5.46-35.625 5.46-54.687C4203.12 362.5 4078.91 250 3906.25 250zm-147.66 226.562C3778.13 414.219 3831.41 375 3906.25 375s128.28 39.219 147.66 101.562h-295.32zm-797.34-210.937v151.406c-15.62-4.531-32.19-7.656-50-7.656-90.78 0-156.25 62.5-156.25 156.25v231.25h-140.62v-531.25H2755v143.75c0-79.375 92.34-143.75 206.25-143.75z" fill="#000"/></svg>

<svg width="4438" height="1000" viewBox="0 0 4438 1000" fill="none" xmlns="http://www.w3.org/2000/svg">
<style>
@media (prefers-color-scheme: dark) {
  path {
    fill: #FFFFFF;
  }
}
</style>
<path d="M2223.75 250C2051.25 250 1926.87 362.5 1926.87 531.25C1926.87 700 2066.72 812.5 2239.38 812.5C2343.59 812.5 2435.47 771.25 2492.34 701.719L2372.81 632.656C2341.25 667.188 2293.28 687.344 2239.38 687.344C2164.53 687.344 2100.94 648.281 2077.34 585.781H2515.16C2518.59 568.281 2520.63 550.156 2520.63 531.094C2520.63 362.5 2396.41 250 2223.75 250ZM2076.09 476.562C2095.62 414.219 2149.06 375 2223.75 375C2298.59 375 2352.03 414.219 2371.41 476.562H2076.09ZM2040.78 78.125L1607.81 828.125L1174.69 78.125H1337.03L1607.66 546.875L1878.28 78.125H2040.78ZM577.344 0L1154.69 1000H0L577.344 0ZM3148.75 531.25C3148.75 625 3210 687.5 3305 687.5C3369.38 687.5 3417.66 658.281 3442.5 610.625L3562.5 679.844C3512.81 762.656 3419.69 812.5 3305 812.5C3132.34 812.5 3008.13 700 3008.13 531.25C3008.13 362.5 3132.5 250 3305 250C3419.69 250 3512.66 299.844 3562.5 382.656L3442.5 451.875C3417.66 404.219 3369.38 375 3305 375C3210.16 375 3148.75 437.5 3148.75 531.25ZM4437.5 78.125V796.875H4296.88V78.125H4437.5ZM3906.25 250C3733.75 250 3609.38 362.5 3609.38 531.25C3609.38 700 3749.38 812.5 3921.88 812.5C4026.09 812.5 4117.97 771.25 4174.84 701.719L4055.31 632.656C4023.75 667.188 3975.78 687.344 3921.88 687.344C3847.03 687.344 3783.44 648.281 3759.84 585.781H4197.66C4201.09 568.281 4203.12 550.156 4203.12 531.094C4203.12 362.5 4078.91 250 3906.25 250ZM3758.59 476.562C3778.13 414.219 3831.41 375 3906.25 375C3981.09 375 4034.53 414.219 4053.91 476.562H3758.59ZM2961.25 265.625V417.031C2945.63 412.5 2929.06 409.375 2911.25 409.375C2820.47 409.375 2755 471.875 2755 565.625V796.875H2614.38V265.625H2755V409.375C2755 330 2847.34 265.625 2961.25 265.625Z" fill="black"/>
</svg>
